X:1
T:J. P. Scholfield
T:J. P. S.
T:The Same Old Way
%%score { ( 1 2 ) | ( 3 4 ) }
L:1/8
M:4/4
K:F
V:1 treble 
V:2 treble 
V:3 bass 
V:4 bass 
V:1
{/x} FG | A2 c2 B3 d | c2 A4 FG | A4 c4 | G6 FG | A2 c2 B3 d | c2 A4 cd | (e2 G2) d4 | c6 | %9
w: God will|fill our hearts for|ser\- vice, In the|same old|way; He will|an\- swer prayer and|bless us In the|same * old|way.|
w: Does your|heart burn for an\-|oth\- er In the|same old|way? Will you|seek to win some|oth\- er In the|same * old|way?|
w: God will|help the weak and|wear\- y In the|same old|way; He will|cheer the life that's|drear\- y In the|same * old|way.|
w: Will you|tell the won\- drous|sto\- ry In the|same old|way? That your|Lord may have the|glo\- ry In the|same * old|way?|
"^Chorus\n" cA | F4 G4 | A6 cd | G4 G4 | B6 AG | %14
w: In the|same old|way, In the|same old|way; God will|
w: |||||
w: |||||
w: |||||
 F2 c2[Q:1/4=72]"^Adagio" !fermata!f3[Q:1/4=112]"^Moderato" e | e2 d4 cB | A4 G4 | F6 |] %18
w: bless and save His|peo\- ple In the|same old|way.|
w: ||||
w: ||||
w: ||||
V:2
 CC | F2 F2 F3 F | F2 F4 FF | F4 F4 | E6 FF | F2 F2 F3 F | F2 F4 EF | (G2 E2) F4 | E6 | FF | %10
 F4 E4 | F6 FF | E4 E4 | G6 FF | F2 F2 A3 F | F2 F4 FF | F4 E4 | F6 |] %18
V:3
 A,B, | C2 A,2 D3 B, | A,2 C4 A,B, | C4 C4 | (C4 B,2) A,B, | C2 A,2 D3 B, | A,2 C4 CC | C4 =B,4 | %8
 C6 | A,C | A,4 C4 | C6 CB, | B,4 C4 | C6 CB, | A,2 A,2 !fermata!C3 C | B,2 B,4 CD | C4 B,4 | %17
 A,6 |] %18
V:4
 F,F, | F,2 F,2 F,3 F, | F,2 F,4 F,F, | F,4 A,,4 | C,6 F,F, | F,2 F,2 F,3 F, | F,2 F,4 B,A, | %7
 G,4 G,4 | C,6 | F,F, | F,4 C,4 | F,6 A,,B,, | C,4 C,4 | C,6 F,F, | F,2 F,2 F,3 A, | %15
 B,2 B,,4 A,,B,, | C,4 C,4 | F,6 |] %18

